X:991
T:Lordstag Waltz
C:Joe Buchanan's Scottish Tome - Page 574.0
I:574 0
Z:Carl Allison
R:Waltz
L:1/4
M:3/4
K:C
(d/c/) | B2 ((3G/B/d/) | e d3/2 B/ | d c3/2 B/ | A3 |
d c3/2 B/ | A2 ((3B/c/d/) | e d3/2 c/ | B2 (d/c/) |
B2 ((3G/B/d/) | e d3/2 B/ | d c3/2 B/ | A3 |
f3/2 e/ d | (f/e/) (d/c/) (B/A/) | G3- | G2 ((3B/d/g/) |
e2 ((3c/e/g/) | (a/g/) (e/a/) (g/e/) | ((3B/c/d/) | e d B |
A2 ((3^G/A/B/) | c B A | B2 ((3^G/B/c/) | d2 ^d |
e2 ((3c/e/g/) | (a/g/) (e/a/) (g/e/) | d2 ((3B/c/d/) | e d e |
f3/2 e/ d | (f/e/) (d/c/) (B/A/) | G3- | G2 |]
